storage/app/icons/phosphoricons/thin/desktop-thin.svg

<svg xmlns="http://www.w3.org/2000/svg" fill="currentColor" viewBox="0 0 256 256"><path d="M208 44H48a20 20 0 0 0-20 20v112a20 20 0 0 0 20 20h76v24H96a4 4 0 0 0 0 8h64a4 4 0 0 0 0-8h-28v-24h76a20 20 0 0 0 20-20V64a20 20 0 0 0-20-20M48 52h160a12 12 0 0 1 12 12v84H36V64a12 12 0 0 1 12-12m160 136H48a12 12 0 0 1-12-12v-20h184v20a12 12 0 0 1-12 12"/></svg>

<svg xmlns="http://www.w3.org/2000/svg" viewBox="0 0 256 256" fill="currentColor"><path d="M208,44H48A20,20,0,0,0,28,64V176a20,20,0,0,0,20,20h76v24H96a4,4,0,0,0,0,8h64a4,4,0,0,0,0-8H132V196h76a20,20,0,0,0,20-20V64A20,20,0,0,0,208,44ZM48,52H208a12,12,0,0,1,12,12v84H36V64A12,12,0,0,1,48,52ZM208,188H48a12,12,0,0,1-12-12V156H220v20A12,12,0,0,1,208,188Z"/></svg>
